X:1
T:Title
%%score { 1 | 2 }
L:1/8
Q:1/4=100
M:4/4
K:D
V:1 treble nm="Grand Piano"
V:2 bass 
V:1
 [Fd]2 [Ac]>[GB] [FA]2 [FA]>[FA] | [DGB]2 [DFA]>[A,CE] [A,EG]2 F2 | B2 B>B d2 B>B | %3
w: Geo.~C.~Hugg * * * * *|||
 A2 [CE]>[EG] [DF]4 | [FA]2 [Fd]>[GB] [FA]2 [A,DF]>[DFA] | [DGB]2 [DFA]>[A,CE] [A,EG]2 F2 | %6
w: |||
 B2 d>B [FA]2 [FA]>[FA] | [EAc]2 [EGB]>[EGc] [Fd]4 | [FA]2 [Fd]>[Ge] [Fd]4 | B2 d>e d4 | %10
w: ||||
 c2 c>c c2 B>A | [Fd]2 [FA]>[GB] [FA]4 | %12
w: ||
 [DF]2 [FA]>[FA] d2 ^d>[Ad][Q:1/4=99][Q:1/4=97][Q:1/4=96][Q:1/4=94][Q:1/4=93][Q:1/4=91][Q:1/4=90][Q:1/4=88][Q:1/4=87][Q:1/4=85][Q:1/4=84][Q:1/4=82] | %13
w: |
[M:35/32] [Ge]2 [Gc]3/2-(3:2:6[Gc]3/4-[Gc]/8[CGA]3/4-[CGA]/8[Fd]3/4-[Fd]/8- [Fd]3- [Fd]/[Q:1/4=81][Q:1/4=79][Q:1/4=78][Q:1/4=76] |] %14
w: |
V:2
 [D,D]2 [D,D]>[D,D] [D,D]2 [D,D]>[D,D] | G,,2 A,,>A,, C,2 [D,A,D]2 | %2
 [G,D]2 [G,DG]>[G,DG] [G,B,G]2 [G,DG]>[G,DG] | [A,DF]2[K:bass] [A,,A,]>[A,,A,] [D,A,]4 | %4
 [D,D]2 [D,D]>[D,D] [D,D]2 D,>D, | G,,2 A,,>A,, C,2 [D,A,D]2 | %6
 [G,D]2 [G,B,D]>[G,DG][K:bass] [D,D]2 [D,D]>[D,D] | A,,2 A,,>A,, [D,D]4 | %8
 [D,D]2 [D,A,]>[D,A,] [D,D]4 | [G,DG]2 [G,B,G]>[G,B,G] [G,B,G]4 | %10
 [A,EG]2 [A,EG]>[A,EG] [A,EG]2 [A,DG]>[A,CG] | [D,D]2 [D,D]>[D,D] [D,D]4 | %12
 [D,A,]2 [D,D]>[D,D] [B,DF]2 [F,B,]>[F,B,] | %13
[M:35/32] [E,B,]2 [A,,A,]3/2-(3:2:6[A,,A,]3/4-[A,,A,]/8A,,3/4-A,,/8[D,A,]3/4-[D,A,]/8- [D,A,]3- [D,A,]/ |] %14

